X: 1
T: the Duchess of Gordon #1
C: Daniel Dow
M: C
L: 1/8
R: Strathspey
B: Stewart-Robertson - The Athole Collection  (1884)
Z: AK/Fiddler's Companion
K:D
B |\
"D"A<D A>F A<D D>d | "D"A<D A>F "Em"B<E "A7"E>d |\
"D"A<D A>d "G"B>d "D"A>d | "Em"B>d "A7"A>g "D"f<d d :|
f |\
"D"d>A F>A D<A d>B | "D"A<D A>F "Em"E<e "A7"e<f |\
"D"d>A F>A D>A F>A | "G"d<B "A7"A>F "D"A<d d |]
f |\
"D"d>A F>A D>A d>B | "D"A<D A>F "Em"E<e "A7"e>g |\
"D"f<a "A"e>f "Bm"d>B "A"A<F | "G"B/c/d/B/ "A7"A>F "D"A<d d |]
